X: 12207
T: Fàg A' Phiob Bhochd
R: reel
M: 4/4
K: Dmajor
|:dA (3AAA defd|eB (3BBB efge|fa (3aaa afdf|gefd edBc|
dA (3AAA defd|eB (3BBB efge|fa (3aaa afec|dAfe d4:|
|:cA (3AAA cdec|dA (3AAA defd|eB (3BBB efge|fa (3aaa afec|
[1 dA (3AAA defd|eB (3BBB efge|fa (3aaa afec|dAfe d4:|
[2 d3c defd|e3d efge|fa (3aaa afec|d2f2 d4||

